X: 322
M: C
L: 1/8
K: D
V: 1
a2b>a g2 (3(fef) | e2e>e e2D2 |\
d2f>d B2d>B | AFdB AFED |
V: 2
z2 |\
z2D2 F2D>F | A2F>A d2A>d | f2g>f e2 (3(dcd) | c2c>c c2z2 |
z2D2 F2D>F | G2F>G E2G>F | G>AB>e d2Tc2 | d2d>d d2 :: F2 |
z2D2 F2D>F | G2B>G E2G>F | G>gf>e d2Tc2 | d2d>d d2 :|

